src/icons/icons_set_04/012-smiley-bien.svg

<svg height="50" viewBox="0 0 50 50" width="50" xmlns="http://www.w3.org/2000/svg"><path d="m35.6860947 6.326706c8.0959454 8.1121008 8.0959454 21.2472879 0 29.3593887-5.9375262 5.9381664-14.8675251 7.714829-22.6257817 4.5014986-7.75825661-3.21333-12.81683739-10.7838104-12.81683739-19.181193s5.05858078-15.96786292 12.81683739-19.18119304c7.7582566-3.21333012 16.6882555-1.43666757 22.6257817 4.50149874zm-22.4305394 9.0601567h.0056014c-.0000036 1.3388612 1.0837189 2.4250895 2.4225766 2.428178 1.3410457 0 2.428178-1.0871323 2.428178-2.428178s-1.0871323-2.428178-2.428178-2.428178-2.428178 1.0871323-2.428178 2.428178zm11.0038194 0h.0056013c-.0000036 1.3388612 1.083719 2.4250895 2.4225767 2.428178 1.3410457 0 2.428178-1.0871323 2.428178-2.428178s-1.0871323-2.428178-2.428178-2.428178-2.428178 1.0871323-2.428178 2.428178zm5.7357653 9.939566h.0112027c.2575364-.5947314-.015814-1.2856309-.6105454-1.5431674-.5947313-.2575364-1.2856309.015814-1.5431673.6105454-1.13427 2.629826-3.8089067 4.310226-6.8196233 4.310226-3.0779327 0-5.7693734-1.6916027-6.856032-4.3074254-.2490293-.5985982-.9361671-.8819798-1.5347653-.6329506-.5985983.2490293-.8819799.9361671-.6329507 1.5347653 1.461948 3.4924313 4.9935886 5.7525693 9.023748 5.7525693 3.9377373 0 7.4581753-2.2461346 8.9621333-5.7245626z" transform="translate(3.995 3.995)"/></svg>

<?xml version="1.0" encoding="UTF-8"?>
<svg width="50px" height="50px" viewBox="0 0 50 50" version="1.1" xmlns="http://www.w3.org/2000/svg" xmlns:xlink="http://www.w3.org/1999/xlink">
    <!-- Generator: Sketch 52.4 (67378) - http://www.bohemiancoding.com/sketch -->
    <title>012-smiley-bien</title>
    <desc>Created with Sketch.</desc>
    <g id="012-smiley-bien" stroke="none" stroke-width="1" fill="none" fill-rule="evenodd">
        <g id="Group" transform="translate(3.995000, 3.995000)" fill="#000000" fill-rule="nonzero">
            <g id="006-smiley-bien">
                <g id="ICONSET-01">
                    <g id="006-smiley-bien">
                        <path d="M35.6860947,6.326706 C43.7820401,14.4388068 43.7820401,27.5739939 35.6860947,35.6860947 C29.7485685,41.6242611 20.8185696,43.4009237 13.060313,40.1875933 C5.30205639,36.9742633 0.243475613,29.4037829 0.243475613,21.0064003 C0.243475613,12.6090177 5.30205639,5.03853738 13.060313,1.82520726 C20.8185696,-1.38812286 29.7485685,0.388539688 35.6860947,6.326706 Z M13.2555553,15.3868627 L13.2611567,15.3868627 C13.2611531,16.7257239 14.3448756,17.8119522 15.6837333,17.8150407 C17.024779,17.8150407 18.1119113,16.7279084 18.1119113,15.3868627 C18.1119113,14.045817 17.024779,12.9586847 15.6837333,12.9586847 C14.3426876,12.9586847 13.2555553,14.045817 13.2555553,15.3868627 Z M24.2593747,15.3868627 L24.264976,15.3868627 C24.2649724,16.7257239 25.348695,17.8119522 26.6875527,17.8150407 C28.0285984,17.8150407 29.1157307,16.7279084 29.1157307,15.3868627 C29.1157307,14.045817 28.0285984,12.9586847 26.6875527,12.9586847 C25.346507,12.9586847 24.2593747,14.045817 24.2593747,15.3868627 Z M29.99514,25.3264287 L30.0063427,25.3264287 C30.2638791,24.7316973 29.9905287,24.0407978 29.3957973,23.7832613 C28.801066,23.5257249 28.1101664,23.7990753 27.85263,24.3938067 C26.71836,27.0236327 24.0437233,28.7040327 21.0330067,28.7040327 C17.955074,28.7040327 15.2636333,27.01243 14.1769747,24.3966073 C13.9279454,23.7980091 13.2408076,23.5146275 12.6422094,23.7636567 C12.0436111,24.012686 11.7602295,24.6998238 12.0092587,25.298422 C13.4712067,28.7908533 17.0028473,31.0509913 21.0330067,31.0509913 C24.970744,31.0509913 28.491182,28.8048567 29.99514,25.3264287 Z" id="Combined-Shape"></path>
                    </g>
                </g>
            </g>
        </g>
    </g>
</svg>
